X:43
T:Lady Walpole's
S:Bernie Waugh
R:Reel
M:4/4
L:1/8
K:Bb
|:F2|\
"Bb"B2d2decd|B/c/B F2F2FE|DFBF "Eb"EDEG|"F"FGFE"Bb"D2B,2|
"Bb"BFdB fdgf|"Gm"bagf "Cm"edcB|"F"Acfc "Bb"BABd|"F"cBAGF2:|
|:ff|\
"Bb"fbfd BdBF|"Eb"EDEF GFED|"Cm"C2gf edcB|"F"ABcAF2 (3fga|
"Bb"bfdf "Cm"gece|"Dm"dfBd "Eb"cAGF|"F"fgfe cBAc|"Bb"B2d2B2:|

